!!! OTL: Berkowitz238
!!! Chapter: 1
!!! Section: II
!!! Page: 55
!!! Mode: 
!!! Encoder: DJB
**kern
*staff1
*I"Piano
=1-
*clefC3
*k[b-]
*d:
*M2/4
8r
8r
8r
8a\
=2
8d\L
16e\L
16f\JJ
16g\LL
16f\
16e\
16d\JJ
=3
8d\L
8c#\J
8r
8A/
=4
8d\L
8e\J
8f\L
8g\J
=5
4a\
8r
8a\
=6
8b-\L
16a\L
16g\JJ
16f\LL
16g\
16a\
16b-\JJ
=7
8a\L
8g\J
8r
8f\
=8
8e\L
16d\L
16e\JJ
8f\L
8g\J
=9
!!linebreak:original
4e\
8f\L
8f\J
=10
8cc\L
16b-\L
16a\JJ
16g\LL
16a\J
8b-\J
=11
8a\L
16g\L
16f\JJ
16e\LL
16f\J
8g\J
=12
8f\L
16e\L
16d\JJ
8c#\L
8d\J
=13
4e\
8A/L
8A/J
=14
8d\L
16e\L
16f\JJ
8e\L
16f\L
16g\JJ
=15
8f\L
16g\L
16a\JJ
8g\L
16a\L
16b-\JJ
=16
!!linebreak:original
8a\L
8d\J
16f\LL
16e\
16d\
16c#\JJ
=17
4d\
4r
==
*-
